X: 1
T:Bourr\'ee Tournante
M:3/8
L:1/8
O:France
R:Bourr\'ee
K:G
B/c/| dBd| d/B/GB/c/| dBd| d2A/B/| cAA| A2G/A/| BGG |G2 :|
F/E/|: D2E| D2E| DGA| B3| AGA| GFE|1 DED| B2G :|2 DBA| G2|]
